X:1
T:James Gibb editions
T:Psalm 16 (Becker) - Schütz
%%score [ ( 1 2 ) ( 3 4 ) ]
L:1/8
Q:1/4=108
M:2/2
K:F
V:1 treble nm="Soprano Alto"
V:2 treble 
V:3 bass nm="Tenor Bass"
V:4 bass 
V:1
"^Cornelius Becker\n(1561-1604)""^Psalm 16, SWV 112""^Heinrich Schütz\n(1585-1672)" c4 B4 | %1
w: ~Be- wahr|
 G2 A4 c2 | c2 =B2 c4 | F4 G4 | A2 B4 G2 | ^F4 G4 |[M:2/2][Q:1/4=107][Q:1/4=107] A4 E4 | G2 F4 E2 | %8
w: mich, Gott, ich|trau auf dich|und sag|zu dir, mein|Her- re,|um dei-|net- will'n muß|
 F2 D2 ^C4 | ^C4 D4 | E2 F4 A2 | G4 F4 | c4 d4 | A2 B4 c2 | B2 A2 G4 | C4 G4 | A2 B4 A2 | %17
w: lei- den ich|manch Mar-|ter groß und|schwe- re,|zu- gut|den lie- ben|Heil- gen dein,|die mit|dir sol- len|
 F2 G2 A4 | d4 c4 | B2 A4 G2 | F4 E8 |] %21
w: herr- lich sein,|sie sind's,|die mir ge-|fal- len.|
V:2
 F4 D4 | E2 F4 E2 | G2 G2 E4 | D4 D4 | F2 F4 _E2 | D4 D4 |[M:2/2] F4 G4 | E2 D4 A,2 | A,2 G,2 A,4 | %9
 A,4 A,4 | =C2 C4 C2 | C4 C4 | F4 F4 | F2 D4 F2 | F2 F2 E4 | E4 E4 | E2 G4 E2 | D2 D2 F4 | F4 F4 | %19
 F2 F4 D2 | D4 C8 |] %21
V:3
 A,4 B,4 | C2 C4 A,2 | D2 D2 C4 | A,4 B,4 | C2 D4 C2 | A,4 =B,4 |[M:2/2] C4 C4 | C2 A,4 E,2 | %8
 D,2 D,2 E,4 | E,4 F,4 | G,2 A,4 F,2 | E,4 F,4 | A,4 B,4 | C2 B,4 A,2 | %14
"^3. Der Herr ist mein Gut und mein Teil, dies Erb' ich lieb vor allen,\nmein Los ist mir zum Glück und Heil auf's Lieblichste gefallen,\nein schön Erbteil mir worden ist, ich lob den Herrn zu jeder Frist,\nder mir hat wohl geraten.\n\n6. Den Weg zum Leben zeigst du mir, Gott Vater, durch dein Güte,\nauf daß für mich ewig bei dir bereit sei Freud und Friede,\ndie Füll der ew 'gen Herrlichkeit und lieblich Wesen allezeit\nist, Gott, zu deiner Rechten" D2 C2 C4 | %15
 G,4 C4 | C2 D4 C2 | A,2 B,2 C4 | B,4 A,4 | D2 D4 B,2 | B,4 G,8 |] %21
V:4
 F,4 G,4 | C,2 F,4 A,2 | G,2 G,2 C,4 | D,4 G,4 | F,2 B,,4 C,2 | D,4 G,4 |[M:2/2] F,4 C,4 | %7
 C,2 D,4 ^C,2 | D,2 B,,2 A,,4 | A,,4 D,4 | C,2 F,4 F,,2 | C,4 F,,4 | F,4 B,,4 | F,2 G,4 F,2 | %14
 B,,2 F,2 C,4 | C,4 C,4 | A,,2 G,,4 A,,2 | D,2 G,2 F,4 | B,,4 F,4 | B,,2 D,4 G,,2 | B,,4 C,8 |] %21

